img/icons/documentImport.svg

<svg width="17" height="16" viewBox="0 0 17 16" fill="none" xmlns="http://www.w3.org/2000/svg">
<path fill-rule="evenodd" clip-rule="evenodd" d="M4.79345 0.0618303L4.55712 0.113941C4.5478 0.115996 4.53864 0.118714 4.52971 0.122076L4.2928 0.211274L4.05833 0.299591C4.04778 0.303565 4.03758 0.308425 4.02785 0.314117L3.75089 0.476118L3.48153 0.633669C3.46677 0.642302 3.45318 0.652792 3.44109 0.664884L3.12508 0.980897L2.809 1.29698C2.79695 1.30902 2.78649 1.32256 2.77787 1.33726L2.61133 1.62139L2.44161 1.91086C2.43506 1.92204 2.42961 1.93383 2.42534 1.94606L2.29842 2.30933L2.17624 2.65895C2.16882 2.68016 2.16504 2.70246 2.16504 2.72493V7.98953V13.2574C2.16504 13.2777 2.16814 13.2979 2.17422 13.3173L2.26283 13.5995L2.35581 13.8956C2.35902 13.9058 2.36303 13.9158 2.36782 13.9253L2.48679 14.1627L2.60611 14.4009C2.61066 14.41 2.61591 14.4187 2.6218 14.427L2.79056 14.6649L2.95634 14.8985C2.9642 14.9096 2.97317 14.9198 2.98312 14.9291L3.17155 15.1047L3.36392 15.2839C3.37126 15.2907 3.3791 15.297 3.38738 15.3026L3.56269 15.4225L3.75043 15.5508L4.00221 15.6775L4.23948 15.797C4.24914 15.8019 4.25919 15.806 4.26951 15.8092L4.56544 15.9021L4.84764 15.9907C4.86703 15.9968 4.88723 15.9999 4.90755 15.9999H8.8195H12.7315C12.7518 15.9999 12.772 15.9968 12.7914 15.9907L13.0736 15.9021L13.3697 15.8091C13.3799 15.8059 13.3898 15.8019 13.3994 15.7971L13.6368 15.6782L13.8749 15.5589C13.884 15.5543 13.8927 15.549 13.901 15.5432L14.1389 15.3744L14.3726 15.2086C14.3836 15.2008 14.3939 15.1918 14.4032 15.1818L14.5787 14.9934L14.7579 14.801C14.7647 14.7937 14.771 14.7859 14.7767 14.7776L14.8965 14.6023L15.0248 14.4145L15.1507 14.1642L15.2766 13.9139L15.3753 13.6218L15.4635 13.3606C15.4704 13.3402 15.474 13.3188 15.474 13.2973L15.4867 9.6375L15.4994 5.97358C15.4995 5.95476 15.4969 5.93603 15.4917 5.91793L15.4519 5.77833L15.4184 5.66114C15.4091 5.62854 15.3917 5.59885 15.3677 5.57484L12.7272 2.92613L10.0652 0.255855C10.0553 0.245882 10.0443 0.236988 10.0325 0.229319L9.86478 0.120406L9.72909 0.0323284C9.69659 0.0112312 9.65866 2.93341e-05 9.61991 8.44368e-05L7.36153 0.00329604L5.06542 0.0066023C5.05103 0.00662301 5.03669 0.00819593 5.02264 0.0112937L4.79345 0.0618303ZM8.82897 2.6597L8.84425 3.95335C8.8445 3.97388 8.8479 3.99426 8.85435 4.01376L8.94116 4.27638L9.03309 4.55446C9.03616 4.56376 9.03991 4.57282 9.04431 4.58156L9.16362 4.81875L9.28953 5.06907L9.41782 5.25682L9.53765 5.43213C9.54331 5.4404 9.54959 5.44825 9.55642 5.45558L9.73561 5.64795L9.91117 5.83639C9.92044 5.84633 9.93069 5.8553 9.94177 5.86317L10.1754 6.02894L10.4132 6.19768C10.4216 6.20358 10.4303 6.20884 10.4395 6.21341L10.6761 6.33184L10.9134 6.45063C10.9221 6.45496 10.931 6.45865 10.9402 6.46168L11.2184 6.55367L11.4811 6.64048C11.5006 6.64693 11.5209 6.65033 11.5415 6.65057L12.8368 6.6659L13.9648 6.6792C14.0746 6.6805 14.1628 6.77012 14.1624 6.87995L14.151 9.85966L14.139 13.0031C14.1389 13.026 14.1349 13.0488 14.1272 13.0703L14.0418 13.3067L13.953 13.5529C13.9475 13.568 13.9403 13.5823 13.9315 13.5957L13.7991 13.7951L13.6681 13.9924C13.6583 14.0071 13.6467 14.0204 13.6334 14.0321L13.5072 14.1429L13.3728 14.2609C13.3649 14.2678 13.3565 14.2741 13.3476 14.2797L13.2075 14.3682L13.0719 14.4538C13.06 14.4613 13.0474 14.4675 13.0343 14.4723L12.7829 14.565L12.5453 14.6525C12.5231 14.6607 12.4997 14.6649 12.4761 14.6649H8.8195H5.16221C5.13906 14.6649 5.11608 14.6608 5.0943 14.653L4.85828 14.5678L4.61201 14.4789C4.59696 14.4735 4.58261 14.4663 4.56928 14.4574L4.36756 14.3235L4.16901 14.1917C4.15357 14.1815 4.13962 14.1691 4.12758 14.155L3.98227 13.985L3.83527 13.8131C3.82434 13.8003 3.81507 13.7862 3.80767 13.7711L3.70875 13.5691L3.60961 13.3665C3.60239 13.3517 3.59701 13.3361 3.5936 13.3201L3.5397 13.0659L3.48505 12.8079C3.48216 12.7943 3.4807 12.7804 3.4807 12.7665V8.01039V3.25431C3.4807 3.24038 3.48216 3.22649 3.48505 3.21286L3.5397 2.95492L3.5936 2.70072C3.59701 2.68464 3.60239 2.66905 3.60961 2.65429L3.70875 2.45172L3.80767 2.24972C3.81507 2.23461 3.82434 2.2205 3.83527 2.20772L3.98227 2.03577L4.12726 1.86613C4.13951 1.85179 4.15373 1.83926 4.16949 1.82891L4.36531 1.70029L4.56621 1.56834C4.5786 1.56021 4.59184 1.55347 4.60571 1.54827L4.77376 1.48518L4.94456 1.42106C4.95663 1.41653 4.96911 1.41318 4.98183 1.41105L5.1701 1.37954L5.36145 1.34756C5.37216 1.34577 5.38299 1.34485 5.39385 1.34482L7.09543 1.33999L8.61508 1.33563C8.72483 1.33532 8.81433 1.42351 8.81563 1.53326L8.82897 2.6597ZM13.0862 5.33504L13.0363 5.3456C13.0205 5.34895 13.0043 5.35037 12.9881 5.34982L12.4075 5.33004L11.8323 5.31044C11.8126 5.30977 11.793 5.30618 11.7743 5.29978L11.5336 5.21735L11.289 5.13362C11.2729 5.12808 11.2575 5.12048 11.2432 5.11103L11.0429 4.97804L10.8443 4.84626C10.8289 4.83601 10.8149 4.82366 10.8029 4.80957L10.6576 4.63956L10.5106 4.46761C10.4997 4.45482 10.4904 4.44071 10.483 4.4256L10.3841 4.2236L10.2849 4.02104C10.2777 4.00628 10.2723 3.99068 10.2689 3.97461L10.215 3.72041L10.1603 3.46233C10.1575 3.44879 10.156 3.43499 10.156 3.42114L10.1553 2.87894L10.1552 2.79941C10.155 2.62114 10.3705 2.53168 10.4966 2.6577L11.6572 3.81766L13.1066 5.26613C13.1295 5.28906 13.1179 5.32831 13.0862 5.33504ZM5.80972 6.09783L5.70507 6.15849C5.67411 6.17643 5.64853 6.20236 5.631 6.23356L5.56983 6.34243L5.50751 6.45328C5.49068 6.48321 5.48184 6.51696 5.48184 6.5513V6.67532V6.79936C5.48184 6.83369 5.49068 6.86744 5.5075 6.89736L5.57021 7.00892L5.6311 7.11725C5.64907 7.14922 5.67548 7.17563 5.70744 7.1936L5.81577 7.25449L5.92734 7.3172C5.95726 7.33402 5.99101 7.34286 6.02534 7.34286H6.81691H7.60848C7.6428 7.34286 7.67655 7.33402 7.70648 7.3172L7.81804 7.25449L7.92637 7.1936C7.95833 7.17563 7.98475 7.14922 8.00271 7.11725L8.06361 7.00892L8.12632 6.89736C8.14314 6.86744 8.15197 6.83369 8.15197 6.79936V6.67532V6.55129C8.15197 6.51696 8.14314 6.48321 8.12632 6.45329L8.06361 6.34172L8.00271 6.23339C7.98475 6.20143 7.95833 6.17502 7.92637 6.15705L7.81804 6.09616L7.70658 6.03351C7.67659 6.01665 7.64276 6.00781 7.60836 6.00785L6.81123 6.00875L6.01532 6.00965C5.98015 6.00969 5.94561 6.019 5.91519 6.03665L5.80972 6.09783ZM5.80972 8.76795L5.70507 8.82862C5.67411 8.84656 5.64853 8.87249 5.631 8.90368L5.56983 9.01256L5.50751 9.12341C5.49068 9.15334 5.48184 9.18709 5.48184 9.22143V9.34545V9.46949C5.48184 9.50382 5.49068 9.53757 5.5075 9.56749L5.57021 9.67905L5.6311 9.78738C5.64907 9.81935 5.67548 9.84576 5.70744 9.86373L5.81577 9.92462L5.92734 9.98733C5.95726 10.0042 5.99101 10.013 6.02534 10.013H8.8195H11.6137C11.648 10.013 11.6817 10.0042 11.7117 9.98733L11.8232 9.92462L11.9316 9.86373C11.9635 9.84576 11.9899 9.81935 12.0079 9.78738L12.0688 9.67905L12.1315 9.56749C12.1483 9.53757 12.1572 9.50382 12.1572 9.46949V9.34545V9.22142C12.1572 9.18709 12.1483 9.15334 12.1315 9.12342L12.0688 9.01186L12.0079 8.90352C11.9899 8.87156 11.9635 8.84515 11.9316 8.82718L11.8232 8.76629L11.7117 8.70359C11.6818 8.68676 11.648 8.67793 11.6136 8.67794L8.81383 8.67888L6.0154 8.67982C5.98018 8.67983 5.94559 8.68915 5.91512 8.70682L5.80972 8.76795ZM5.80972 11.4381L5.70507 11.4987C5.67411 11.5167 5.64853 11.5426 5.631 11.5738L5.56983 11.6827L5.50751 11.7935C5.49068 11.8235 5.48184 11.8572 5.48184 11.8916V12.0156V12.1396C5.48184 12.1739 5.49068 12.2077 5.5075 12.2376L5.57021 12.3492L5.6311 12.4575C5.64907 12.4895 5.67548 12.5159 5.70744 12.5339L5.81577 12.5948L5.92734 12.6575C5.95726 12.6743 5.99101 12.6831 6.02534 12.6831H8.8195H11.6137C11.648 12.6831 11.6817 12.6743 11.7117 12.6575L11.8232 12.5948L11.9316 12.5339C11.9635 12.5159 11.9899 12.4895 12.0079 12.4575L12.0688 12.3492L12.1315 12.2376C12.1483 12.2077 12.1572 12.1739 12.1572 12.1396V12.0156V11.8915C12.1572 11.8572 12.1483 11.8235 12.1315 11.7935L12.0688 11.682L12.0079 11.5737C11.9899 11.5417 11.9635 11.5153 11.9316 11.4973L11.8232 11.4364L11.7117 11.3737C11.6818 11.3569 11.648 11.3481 11.6136 11.3481L8.81383 11.349L6.0154 11.35C5.98018 11.35 5.94559 11.3593 5.91512 11.377L5.80972 11.4381Z" fill="#F56311"/>
</svg>

<svg width="17" height="16" fill="none" xmlns="http://www.w3.org/2000/svg"><path fill-rule="evenodd" clip-rule="evenodd" d="m4.793.062-.236.052a.2.2 0 0 0-.027.008l-.237.09L4.058.3a.2.2 0 0 0-.03.014L3.75.476l-.27.158a.2.2 0 0 0-.04.03l-.316.317-.316.316a.2.2 0 0 0-.031.04l-.167.284-.17.29a.2.2 0 0 0-.016.035l-.127.363-.122.35a.2.2 0 0 0-.011.066v10.532a.2.2 0 0 0 .01.06l.088.283.093.296.012.03.119.237.12.238a.135.135 0 0 0 .015.026l.169.238.165.234a.2.2 0 0 0 .027.03l.189.176.192.179a.197.197 0 0 0 .023.019l.176.12.187.128.252.127.237.119.03.012.296.093.283.089a.2.2 0 0 0 .06.009h7.823a.2.2 0 0 0 .06-.01l.283-.088.296-.093a.2.2 0 0 0 .03-.012l.237-.119.238-.12a.215.215 0 0 0 .026-.015l.238-.169.234-.165a.2.2 0 0 0 .03-.027l.176-.189.179-.192a.203.203 0 0 0 .019-.023l.12-.176.128-.188.126-.25.126-.25.098-.292.088-.261a.198.198 0 0 0 .011-.064l.013-3.66.012-3.663a.198.198 0 0 0-.007-.056l-.04-.14-.034-.117a.2.2 0 0 0-.05-.086l-2.64-2.649-2.663-2.67a.199.199 0 0 0-.032-.027L9.865.12 9.729.032A.2.2 0 0 0 9.62 0L7.363.003 5.065.007a.2.2 0 0 0-.042.004l-.23.05ZM8.83 2.66l.015 1.293a.2.2 0 0 0 .01.06l.087.263.092.278.011.028.12.237.126.25.128.188.12.175a.2.2 0 0 0 .018.024l.18.192.175.188c.01.01.02.02.03.027l.234.166.238.169a.202.202 0 0 0 .027.015l.236.119.237.119a.201.201 0 0 0 .027.01l.278.093.263.086a.2.2 0 0 0 .06.01l1.296.016 1.128.013a.2.2 0 0 1 .197.2l-.011 2.98-.012 3.144a.202.202 0 0 1-.012.067l-.085.237-.089.246a.207.207 0 0 1-.021.043l-.133.2-.13.196a.202.202 0 0 1-.036.04l-.126.11-.134.119a.201.201 0 0 1-.025.019l-.14.088-.136.086a.199.199 0 0 1-.038.018l-.251.093-.238.088a.2.2 0 0 1-.069.012H5.162a.202.202 0 0 1-.068-.012l-.236-.085-.246-.09a.196.196 0 0 1-.043-.02l-.201-.135-.199-.131a.198.198 0 0 1-.041-.037l-.146-.17-.147-.172a.2.2 0 0 1-.027-.042l-.1-.202-.098-.203a.202.202 0 0 1-.016-.046l-.054-.254-.055-.258a.2.2 0 0 1-.004-.041V3.254a.2.2 0 0 1 .004-.041l.055-.258.054-.254a.2.2 0 0 1 .016-.047l.099-.202.099-.202a.2.2 0 0 1 .027-.042l.147-.172.145-.17a.2.2 0 0 1 .042-.037l.196-.129.201-.132a.2.2 0 0 1 .04-.02l.168-.063.17-.064a.2.2 0 0 1 .038-.01l.188-.031.191-.032a.2.2 0 0 1 .033-.003l1.701-.005 1.52-.004a.2.2 0 0 1 .2.197L8.83 2.66Zm4.257 2.675-.05.01a.2.2 0 0 1-.048.005l-.58-.02-.576-.02a.2.2 0 0 1-.058-.01l-.24-.083-.245-.083a.203.203 0 0 1-.046-.023l-.2-.133-.199-.132a.2.2 0 0 1-.041-.036l-.145-.17-.147-.172a.201.201 0 0 1-.028-.042l-.099-.202-.1-.203a.2.2 0 0 1-.015-.046l-.054-.255-.055-.258a.203.203 0 0 1-.004-.04v-.623a.2.2 0 0 1 .34-.141l1.161 1.16 1.45 1.448a.04.04 0 0 1-.02.069Zm-7.276.763-.105.06a.2.2 0 0 0-.074.076l-.061.108-.062.111a.2.2 0 0 0-.026.098V6.8a.2.2 0 0 0 .026.098l.062.112.061.108a.2.2 0 0 0 .076.077l.109.06.111.063a.2.2 0 0 0 .098.026h1.582a.2.2 0 0 0 .098-.026l.112-.063.108-.06a.2.2 0 0 0 .077-.077l.06-.108.063-.112a.2.2 0 0 0 .026-.098v-.248a.2.2 0 0 0-.026-.098l-.062-.111-.061-.109a.2.2 0 0 0-.077-.076l-.108-.06-.111-.063a.2.2 0 0 0-.099-.026h-.797l-.796.002a.2.2 0 0 0-.1.027l-.105.06Zm0 2.67-.105.06a.2.2 0 0 0-.074.076l-.061.109-.062.11a.2.2 0 0 0-.026.098v.248a.2.2 0 0 0 .026.098l.062.112.061.108a.2.2 0 0 0 .076.077l.109.06.111.063a.2.2 0 0 0 .098.026h5.589a.2.2 0 0 0 .098-.026l.111-.062.109-.061a.2.2 0 0 0 .076-.077l.06-.108.064-.112a.2.2 0 0 0 .025-.098v-.248a.2.2 0 0 0-.025-.098l-.063-.111-.061-.108a.2.2 0 0 0-.076-.077l-.109-.06-.111-.063a.2.2 0 0 0-.098-.026h-2.8l-2.799.002a.2.2 0 0 0-.1.027l-.105.061Zm0 2.67-.105.06a.2.2 0 0 0-.074.076l-.061.109-.062.11a.2.2 0 0 0-.026.099v.248a.2.2 0 0 0 .026.098l.062.111.061.108a.2.2 0 0 0 .076.077l.109.06.111.064a.2.2 0 0 0 .098.025h5.589a.2.2 0 0 0 .098-.025l.111-.063.109-.061a.2.2 0 0 0 .076-.077l.06-.108.064-.111a.2.2 0 0 0 .025-.098v-.248a.2.2 0 0 0-.025-.098l-.063-.112-.061-.108a.2.2 0 0 0-.076-.077l-.109-.06-.111-.063a.2.2 0 0 0-.098-.026l-2.8.001-2.799.001a.2.2 0 0 0-.1.027l-.105.061Z" fill="#F56311"/></svg>
